Adwaita++/emblems/16/emblem-question.svg

<svg fill="none" height="16" viewBox="0 0 16 16" width="16" xmlns="http://www.w3.org/2000/svg">
  <path d="m13.6 1h-11.2c-.7732 0-1.4.6268-1.4 1.4v11.2c0 .7732.6268 1.4 1.4 1.4h11.2c.7732 0 1.4-.6268 1.4-1.4v-11.2c0-.7732-.6268-1.4-1.4-1.4z" fill="#9a9996"/>
  <path d="m11.7274 5.85904c0 .39451-.0754.76685-.2261 1.11702-.1462.34575-.3501.64938-.6117.91091-.2571.25709-.5607.46099-.91088.6117-.34574.15071-.71587.22606-1.11037.22606-.13741 0-.25931.02438-.36569.07314-.10195.04876-.18839.11747-.25931.20612-.06649.08422-.11746.18395-.15292.2992-.03547.11525-.0532.23936-.0532.37234v.50537h-1.90159v-.53196c.00443-.39007.07314-.75798.20612-1.10373.13741-.34574.32579-.64494.56515-.8976.2438-.2571.53192-.45878.86437-.60506.33244-.15071.69813-.22606 1.09707-.22606.13298 0 .25709-.02438.37234-.07314s.21498-.11525.2992-.19947c.08866-.08865.15736-.1906.20612-.30585.05319-.11968.07979-.24601.07979-.37899s-.0266-.25709-.07979-.37234c-.04876-.11525-.11746-.21498-.20612-.2992-.08422-.08865-.18395-.15736-.2992-.20612s-.23936-.07314-.37234-.07314h-4.36835v-1.90824h4.36835c.3945 0 .76463.07535 1.11037.22606.35018.15071.65378.35683.91088.61835.2616.2571.4655.55852.6117.90426.1507.34574.2261.71587.2261 1.11037zm-3.49735 5.99736c0 .1596-.03103.3103-.09308.4521-.05763.1374-.13741.2571-.23936.3591-.10195.1019-.22163.1817-.35905.2393-.13741.0621-.28368.0931-.43883.0931-.15514 0-.30363-.031-.44547-.0931-.13742-.0576-.25931-.1374-.3657-.2393-.10195-.102-.18395-.2217-.24601-.3591-.05762-.1418-.08643-.2925-.08643-.4521 0-.1552.02881-.3014.08643-.4388.06206-.1375.14406-.2571.24601-.3591.10639-.1019.22828-.1817.3657-.2394.14184-.062.29033-.093.44547-.093.15515 0 .30142.031.43883.093.13742.0577.2571.1375.35905.2394.10195.102.18173.2216.23936.3591.06205.1374.09308.2836.09308.4388z" fill="#f6f5f4"/>
</svg>

<svg xmlns="http://www.w3.org/2000/svg" fill="none" width="16" height="16" viewBox="0 0 16 16">
 <path fill="url(#paint0_linear)" d="M13.6 1H2.4C1.6268 1 1 1.6268 1 2.4V13.6C1 14.3732 1.6268 15 2.4 15H13.6C14.3732 15 15 14.3732 15 13.6V2.4C15 1.6268 14.3732 1 13.6 1Z"/>
 <path fill="url(#paint1_linear)" d="M11.7274 5.85904C11.7274 6.25355 11.652 6.62589 11.5013 6.97606C11.3551 7.32181 11.1512 7.62544 10.8896 7.88697C10.6325 8.14406 10.3289 8.34796 9.97872 8.49867C9.63298 8.64938 9.26285 8.72473 8.86835 8.72473C8.73094 8.72473 8.60904 8.74911 8.50266 8.79787C8.40071 8.84663 8.31427 8.91534 8.24335 9.00399C8.17686 9.08821 8.12589 9.18794 8.09043 9.30319C8.05496 9.41844 8.03723 9.54255 8.03723 9.67553V10.1809H6.13564V9.64894C6.14007 9.25887 6.20878 8.89096 6.34176 8.54521C6.47917 8.19947 6.66755 7.90027 6.90691 7.64761C7.15071 7.39051 7.43883 7.18883 7.77128 7.04255C8.10372 6.89184 8.46941 6.81649 8.86835 6.81649C9.00133 6.81649 9.12544 6.79211 9.24069 6.74335C9.35594 6.69459 9.45567 6.6281 9.53989 6.54388C9.62855 6.45523 9.69725 6.35328 9.74601 6.23803C9.7992 6.11835 9.8258 5.99202 9.8258 5.85904C9.8258 5.72606 9.7992 5.60195 9.74601 5.4867C9.69725 5.37145 9.62855 5.27172 9.53989 5.1875C9.45567 5.09885 9.35594 5.03014 9.24069 4.98138C9.12544 4.93262 9.00133 4.90824 8.86835 4.90824H4.5V3H8.86835C9.26285 3 9.63298 3.07535 9.97872 3.22606C10.3289 3.37677 10.6325 3.58289 10.8896 3.84441C11.1512 4.10151 11.3551 4.40293 11.5013 4.74867C11.652 5.09441 11.7274 5.46454 11.7274 5.85904ZM8.23005 11.8564C8.23005 12.016 8.19902 12.1667 8.13697 12.3085C8.07934 12.4459 7.99956 12.5656 7.89761 12.6676C7.79566 12.7695 7.67598 12.8493 7.53856 12.9069C7.40115 12.969 7.25488 13 7.09973 13C6.94459 13 6.7961 12.969 6.65426 12.9069C6.51684 12.8493 6.39495 12.7695 6.28856 12.6676C6.18661 12.5656 6.10461 12.4459 6.04255 12.3085C5.98493 12.1667 5.95612 12.016 5.95612 11.8564C5.95612 11.7012 5.98493 11.555 6.04255 11.4176C6.10461 11.2801 6.18661 11.1605 6.28856 11.0585C6.39495 10.9566 6.51684 10.8768 6.65426 10.8191C6.7961 10.7571 6.94459 10.7261 7.09973 10.7261C7.25488 10.7261 7.40115 10.7571 7.53856 10.8191C7.67598 10.8768 7.79566 10.9566 7.89761 11.0585C7.99956 11.1605 8.07934 11.2801 8.13697 11.4176C8.19902 11.555 8.23005 11.7012 8.23005 11.8564Z"/>
 <defs>
  <linearGradient id="paint0_linear" x1="1" x2="15" y1="8" y2="8" gradientUnits="userSpaceOnUse">
   <stop stop-color="#9A9996"/>
  </linearGradient>
  <linearGradient id="paint1_linear" x1="4.5" x2="11.727" y1="8" y2="8" gradientUnits="userSpaceOnUse">
   <stop stop-color="#F6F5F4"/>
  </linearGradient>
 </defs>
</svg>
